Newaita-dark/apps/64/kate.svg

<svg height="64pt" viewBox="0 0 64 64" width="64pt" xmlns="http://www.w3.org/2000/svg" xmlns:xlink="http://www.w3.org/1999/xlink"><linearGradient id="a" gradientUnits="userSpaceOnUse" x1="31.75304" x2="31.75304" y1="56.067872" y2="58.71396000006"><stop offset="0" stop-opacity=".27451"/><stop offset="1" stop-opacity="0"/></linearGradient><linearGradient id="b"><stop offset="0" stop-opacity=".313726"/><stop offset=".222222" stop-opacity=".27451"/><stop offset="1" stop-opacity="0"/></linearGradient><radialGradient id="c" cx="450.908936" cy="189.579361" gradientTransform="matrix(.00000035 -.156265 -.281277 -.0000002 100.292171 127.190665)" gradientUnits="userSpaceOnUse" r="21.166656" xlink:href="#b"/><radialGradient id="d" cx="450.908936" cy="189.579361" gradientTransform="matrix(-.00000035 .156265 .281277 .0000002 -36.786098 -15.054961)" gradientUnits="userSpaceOnUse" r="21.166656" xlink:href="#b"/><radialGradient id="e" cx="450.908936" cy="189.579361" gradientTransform="matrix(-.00000035 -.156265 .281277 -.0000002 -36.786098 127.190665)" gradientUnits="userSpaceOnUse" r="21.166656" xlink:href="#b"/><radialGradient id="f" cx="450.908936" cy="189.579361" gradientTransform="matrix(.00000035 .156265 -.281277 .0000002 100.292167 -15.054959)" gradientUnits="userSpaceOnUse" r="21.166656" xlink:href="#b"/><linearGradient id="g"><stop offset="0" stop-color="#e0e0e0"/><stop offset="1" stop-color="#eee"/></linearGradient><linearGradient id="h" gradientTransform="matrix(.150699 0 0 .434824 -11.708026 67.282696)" gradientUnits="userSpaceOnUse" x1="288.395844" x2="288.395844" xlink:href="#g" y1="-25.791676" y2="-141.414581"/><linearGradient id="i" gradientTransform="matrix(-.150699 0 0 -.434824 105.644083 34.268637)" gradientUnits="userSpaceOnUse" x1="349.851318" x2="349.851318" xlink:href="#g" y1="-50.133408" y2="65.489502"/><linearGradient id="j" gradientUnits="userSpaceOnUse" x1="960" x2="960" y1="935.118103" y2="175.118134"><stop offset="0" stop-color="#5c6bc0"/><stop offset="1" stop-color="#7986cb"/></linearGradient><linearGradient id="k"><stop offset="0" stop-color="#cfd8dc"/><stop offset="1" stop-color="#eceff1"/></linearGradient><linearGradient id="l" gradientUnits="userSpaceOnUse" x1="254.000016" x2="254" xlink:href="#k" y1="-118.395833" y2="-134.270833"/><linearGradient id="m" gradientUnits="userSpaceOnUse" x1="206.375016" x2="206.375" xlink:href="#k" y1="-118.395833" y2="-134.270833"/><linearGradient id="n" gradientUnits="userSpaceOnUse" x1="158.750016" x2="158.75" xlink:href="#k" y1="-118.395833" y2="-134.270833"/><linearGradient id="o" gradientUnits="userSpaceOnUse" x1="349.250016" x2="349.25" xlink:href="#k" y1="-118.395833" y2="-134.270833"/><linearGradient id="p" gradientUnits="userSpaceOnUse" x1="301.625016" x2="301.625" xlink:href="#k" y1="-118.395833" y2="-134.270833"/><path d="m15.875 56.066406h31.753906v2.648438h-31.753906zm0 0" fill="url(#a)"/><path d="m47.628906 56.066406h5.292969v-2.644531h-5.292969zm0 0" fill="url(#c)"/><path d="m15.875 56.066406h-5.289062v2.648438h5.289062zm0 0" fill="url(#d)"/><path d="m15.875 56.066406h-5.289062v-2.644531h5.289062zm0 0" fill="url(#e)"/><path d="m47.628906 56.066406h5.292969v2.648438h-5.292969zm0 0" fill="url(#f)"/><path d="m13.230469 5.792969h37.046875c1.460937 0 2.644531 1.183593 2.644531 2.644531v44.984375c0 1.460937-1.183594 2.644531-2.644531 2.644531h-37.046875c-1.460938 0-2.644531-1.183594-2.644531-2.644531v-44.984375c0-1.460938 1.183593-2.644531 2.644531-2.644531zm0 0" fill="url(#h)"/><path d="m52.921875 45.484375-11.90625 10.582031h9.261719c1.464844 0 2.644531-1.179687 2.644531-2.644531zm0 0" fill="#424242" fill-opacity=".235294"/><path d="m41.015625 56.066406 11.90625-10.582031h-9.261719c-1.464844 0-2.644531 1.179687-2.644531 2.644531zm0 0" fill="url(#i)"/><path d="m43.660156 45.484375c-1.464844 0-2.644531 1.179687-2.644531 2.644531v.664063c0-1.46875 1.179687-2.648438 2.644531-2.648438h8.515625l.746094-.660156zm0 0" fill="#fff" fill-opacity=".784314"/><path d="m328.093663 233.488176 95.240905-84.648166h-74.086675c-11.717631 0-21.15423 9.436598-21.15423 21.154229zm0 0" fill="none" stroke="#212121" stroke-linecap="round" stroke-linejoin="round" stroke-width="3" transform="matrix(.125012 0 0 .125012 .000001 26.877597)"/><path d="m10.75 15.878906h42.007812v2.480469h-42.007812zm0 0" fill-opacity=".235294"/><path d="m400.001193 175.140764c-44.287112 0-79.952999 35.665888-79.952999 79.952999v239.977096h1279.956578v-239.977096c0-44.287111-35.665888-79.952999-79.952999-79.952999zm0 0" fill="url(#j)" stroke="#212121" stroke-linecap="round" stroke-linejoin="round" stroke-width="11.338583" transform="scale(.0330761)"/><path d="m18.523438 28.285156h22.492187c.730469 0 1.320313.511719 1.320313 1.140625v.359375c0 .632813-.589844 1.144532-1.320313 1.144532h-22.492187c-.730469 0-1.324219-.511719-1.324219-1.144532v-.359375c0-.628906.59375-1.140625 1.324219-1.140625zm0 0" fill="#ef5350" fill-opacity=".903974"/><path d="m18.523438 21.667969h26.460937c.730469 0 1.320313.433593 1.320313.964843v.71875c0 .53125-.589844.964844-1.320313.964844h-26.460937c-.730469 0-1.324219-.433594-1.324219-.964844v-.71875c0-.53125.59375-.964843 1.324219-.964843zm0 0" fill="#424242" fill-opacity=".903974"/><path d="m18.523438 34.898438h26.460937c.730469 0 1.320313.539062 1.320313 1.203124v.238282c0 .667968-.589844 1.207031-1.320313 1.207031h-26.460937c-.730469 0-1.324219-.539063-1.324219-1.207031v-.238282c0-.664062.59375-1.203124 1.324219-1.203124zm0 0" fill="#424242" fill-opacity=".903974"/><path d="m13.230469 5.941406c-1.464844 0-2.644531 1.179688-2.644531 2.644532v.332031c0-1.464844 1.179687-2.648438 2.644531-2.644531h37.046875c1.464844-.003907 2.644531 1.179687 2.644531 2.644531v-.332031c0-1.464844-1.179687-2.644532-2.644531-2.644532zm0 0" fill="#fff" fill-opacity=".392157"/><path d="m10.585938 52.902344v.519531c0 1.464844 1.179687 2.644531 2.644531 2.644531h37.046875c1.464844 0 2.644531-1.179687 2.644531-2.644531v-.519531c0 1.464844-1.179687 2.648437-2.644531 2.648437h-37.046875c-1.464844 0-2.644531-1.183593-2.644531-2.648437zm0 0" fill-opacity=".235294"/><path d="m13.230469 5.605469c-1.566407 0-2.832031 1.265625-2.832031 2.832031v44.984375c0 1.566406 1.265624 2.832031 2.832031 2.832031h37.046875c1.566406 0 2.832031-1.265625 2.832031-2.832031v-44.984375c0-1.566406-1.265625-2.832031-2.832031-2.832031zm0 .375h37.046875c1.363281 0 2.457031 1.09375 2.457031 2.457031v44.984375c0 1.367187-1.09375 2.457031-2.457031 2.457031h-37.046875c-1.367188 0-2.457031-1.089844-2.457031-2.457031v-44.984375c0-1.363281 1.089843-2.457031 2.457031-2.457031zm0 0" fill="#212121"/><path d="m18.523438 41.515625h17.199218c.730469 0 1.324219.457031 1.324219 1.023437v.597657c0 .566406-.59375 1.023437-1.324219 1.023437h-17.199218c-.730469 0-1.324219-.457031-1.324219-1.023437v-.597657c0-.566406.59375-1.023437 1.324219-1.023437zm0 0" fill="#26a69a" fill-opacity=".903974"/><g stroke="#212121" stroke-linecap="round" stroke-linejoin="round" stroke-width="3"><path d="m246.070251-134.257711h15.873485c4.374582 0 7.936742 3.530913 7.936742 7.936743 0 4.374582-3.56216 7.936742-7.936742 7.936742h-15.873485c-4.405829 0-7.936742-3.56216-7.936742-7.936742 0-4.40583 3.530913-7.936743 7.936742-7.936743zm0 0" fill="url(#l)" transform="matrix(.125012 0 0 .125012 0 26.877566)"/><path d="m198.449799-134.257711h15.873484c4.374582 0 7.936742 3.530913 7.936742 7.936743 0 4.374582-3.56216 7.936742-7.936742 7.936742h-15.873484c-4.405829 0-7.936742-3.56216-7.936742-7.936742 0-4.40583 3.530913-7.936743 7.936742-7.936743zm0 0" fill="url(#m)" transform="matrix(.125012 0 0 .125012 0 26.877566)"/><path d="m150.7981-134.257711h15.904731c4.374582 0 7.936742 3.530913 7.936742 7.936743 0 4.374582-3.56216 7.936742-7.936742 7.936742h-15.904731c-4.374583 0-7.936743-3.56216-7.936743-7.936742 0-4.40583 3.56216-7.936743 7.936743-7.936743zm0 0" fill="url(#n)" transform="matrix(.125012 0 0 .125012 0 26.877566)"/><path d="m341.311156-134.257711h15.873485c4.374582 0 7.936742 3.530913 7.936742 7.936743 0 4.374582-3.56216 7.936742-7.936742 7.936742h-15.873485c-4.374582 0-7.936742-3.56216-7.936742-7.936742 0-4.40583 3.56216-7.936743 7.936742-7.936743zm0 0" fill="url(#o)" transform="matrix(.125012 0 0 .125012 0 26.877566)"/><path d="m293.690704-134.257711h15.873484c4.374582 0 7.936742 3.530913 7.936742 7.936743 0 4.374582-3.56216 7.936742-7.936742 7.936742h-15.873484c-4.374582 0-7.936742-3.56216-7.936742-7.936742 0-4.40583 3.56216-7.936743 7.936742-7.936743zm0 0" fill="url(#p)" transform="matrix(.125012 0 0 .125012 0 26.877566)"/></g></svg>

<?xml version="1.0" encoding="UTF-8"?>
<svg xmlns="http://www.w3.org/2000/svg" xmlns:xlink="http://www.w3.org/1999/xlink" width="64pt" height="64pt" viewBox="0 0 64 64" version="1.1">
<defs>
<linearGradient id="linear0" gradientUnits="userSpaceOnUse" x1="254" y1="233.5" x2="254" y2="254.666672" gradientTransform="matrix(0.125012,0,0,0.125012,-0.00000763012,26.87757)">
<stop offset="0" style="stop-color:rgb(0%,0%,0%);stop-opacity:0.27451;"/>
<stop offset="1" style="stop-color:rgb(0%,0%,0%);stop-opacity:0;"/>
</linearGradient>
<radialGradient id="radial0" gradientUnits="userSpaceOnUse" cx="450.908936" cy="189.579361" fx="450.908936" fy="189.579361" r="21.166656" gradientTransform="matrix(0.000000348341,-0.156265,-0.281277,-0.000000203077,100.292171,127.190665)">
<stop offset="0" style="stop-color:rgb(0%,0%,0%);stop-opacity:0.313726;"/>
<stop offset="0.222222" style="stop-color:rgb(0%,0%,0%);stop-opacity:0.27451;"/>
<stop offset="1" style="stop-color:rgb(0%,0%,0%);stop-opacity:0;"/>
</radialGradient>
<radialGradient id="radial1" gradientUnits="userSpaceOnUse" cx="450.908936" cy="189.579361" fx="450.908936" fy="189.579361" r="21.166656" gradientTransform="matrix(-0.000000348341,0.156265,0.281277,0.000000203077,-36.786098,-15.054961)">
<stop offset="0" style="stop-color:rgb(0%,0%,0%);stop-opacity:0.313726;"/>
<stop offset="0.222222" style="stop-color:rgb(0%,0%,0%);stop-opacity:0.27451;"/>
<stop offset="1" style="stop-color:rgb(0%,0%,0%);stop-opacity:0;"/>
</radialGradient>
<radialGradient id="radial2" gradientUnits="userSpaceOnUse" cx="450.908936" cy="189.579361" fx="450.908936" fy="189.579361" r="21.166656" gradientTransform="matrix(-0.000000348341,-0.156265,0.281277,-0.000000203077,-36.786098,127.190665)">
<stop offset="0" style="stop-color:rgb(0%,0%,0%);stop-opacity:0.313726;"/>
<stop offset="0.222222" style="stop-color:rgb(0%,0%,0%);stop-opacity:0.27451;"/>
<stop offset="1" style="stop-color:rgb(0%,0%,0%);stop-opacity:0;"/>
</radialGradient>
<radialGradient id="radial3" gradientUnits="userSpaceOnUse" cx="450.908936" cy="189.579361" fx="450.908936" fy="189.579361" r="21.166656" gradientTransform="matrix(0.000000348341,0.156265,-0.281277,0.000000203077,100.292167,-15.054959)">
<stop offset="0" style="stop-color:rgb(0%,0%,0%);stop-opacity:0.313726;"/>
<stop offset="0.222222" style="stop-color:rgb(0%,0%,0%);stop-opacity:0.27451;"/>
<stop offset="1" style="stop-color:rgb(0%,0%,0%);stop-opacity:0;"/>
</radialGradient>
<linearGradient id="linear1" gradientUnits="userSpaceOnUse" x1="288.395844" y1="-25.791676" x2="288.395844" y2="-141.414581" gradientTransform="matrix(0.150699,0,0,0.434824,-11.708026,67.282696)">
<stop offset="0" style="stop-color:rgb(87.843138%,87.843138%,87.843138%);stop-opacity:1;"/>
<stop offset="1" style="stop-color:rgb(93.333334%,93.333334%,93.333334%);stop-opacity:1;"/>
</linearGradient>
<linearGradient id="linear2" gradientUnits="userSpaceOnUse" x1="349.851318" y1="-50.133408" x2="349.851318" y2="65.489502" gradientTransform="matrix(-0.150699,0,0,-0.434824,105.644083,34.268637)">
<stop offset="0" style="stop-color:rgb(87.843138%,87.843138%,87.843138%);stop-opacity:1;"/>
<stop offset="1" style="stop-color:rgb(93.333334%,93.333334%,93.333334%);stop-opacity:1;"/>
</linearGradient>
<linearGradient id="linear3" gradientUnits="userSpaceOnUse" x1="960" y1="935.118103" x2="960" y2="175.118134" gradientTransform="matrix(1,0,0,1,0,0)">
<stop offset="0" style="stop-color:rgb(36.078432%,41.960785%,75.294119%);stop-opacity:1;"/>
<stop offset="1" style="stop-color:rgb(47.450981%,52.549022%,79.607844%);stop-opacity:1;"/>
</linearGradient>
<linearGradient id="linear4" gradientUnits="userSpaceOnUse" x1="105.833344" y1="-105.166656" x2="105.833328" y2="-121.041656" gradientTransform="matrix(1,0,0,1,148.166672,-13.229177)">
<stop offset="0" style="stop-color:rgb(81.176472%,84.705883%,86.274511%);stop-opacity:1;"/>
<stop offset="1" style="stop-color:rgb(92.54902%,93.725491%,94.509804%);stop-opacity:1;"/>
</linearGradient>
<linearGradient id="linear5" gradientUnits="userSpaceOnUse" x1="105.833344" y1="-105.166656" x2="105.833328" y2="-121.041656" gradientTransform="matrix(1,0,0,1,100.541672,-13.229177)">
<stop offset="0" style="stop-color:rgb(81.176472%,84.705883%,86.274511%);stop-opacity:1;"/>
<stop offset="1" style="stop-color:rgb(92.54902%,93.725491%,94.509804%);stop-opacity:1;"/>
</linearGradient>
<linearGradient id="linear6" gradientUnits="userSpaceOnUse" x1="105.833344" y1="-105.166656" x2="105.833328" y2="-121.041656" gradientTransform="matrix(1,0,0,1,52.916672,-13.229177)">
<stop offset="0" style="stop-color:rgb(81.176472%,84.705883%,86.274511%);stop-opacity:1;"/>
<stop offset="1" style="stop-color:rgb(92.54902%,93.725491%,94.509804%);stop-opacity:1;"/>
</linearGradient>
<linearGradient id="linear7" gradientUnits="userSpaceOnUse" x1="105.833344" y1="-105.166656" x2="105.833328" y2="-121.041656" gradientTransform="matrix(1,0,0,1,243.416672,-13.229177)">
<stop offset="0" style="stop-color:rgb(81.176472%,84.705883%,86.274511%);stop-opacity:1;"/>
<stop offset="1" style="stop-color:rgb(92.54902%,93.725491%,94.509804%);stop-opacity:1;"/>
</linearGradient>
<linearGradient id="linear8" gradientUnits="userSpaceOnUse" x1="105.833344" y1="-105.166656" x2="105.833328" y2="-121.041656" gradientTransform="matrix(1,0,0,1,195.791672,-13.229177)">
<stop offset="0" style="stop-color:rgb(81.176472%,84.705883%,86.274511%);stop-opacity:1;"/>
<stop offset="1" style="stop-color:rgb(92.54902%,93.725491%,94.509804%);stop-opacity:1;"/>
</linearGradient>
</defs>
<g id="surface1">
<path style=" stroke:none;fill-rule:nonzero;fill:url(#linear0);" d="M 15.875 56.066406 L 47.628906 56.066406 L 47.628906 58.714844 L 15.875 58.714844 Z M 15.875 56.066406 "/>
<path style=" stroke:none;fill-rule:nonzero;fill:url(#radial0);" d="M 47.628906 56.066406 L 52.921875 56.066406 L 52.921875 53.421875 L 47.628906 53.421875 Z M 47.628906 56.066406 "/>
<path style=" stroke:none;fill-rule:nonzero;fill:url(#radial1);" d="M 15.875 56.066406 L 10.585938 56.066406 L 10.585938 58.714844 L 15.875 58.714844 Z M 15.875 56.066406 "/>
<path style=" stroke:none;fill-rule:nonzero;fill:url(#radial2);" d="M 15.875 56.066406 L 10.585938 56.066406 L 10.585938 53.421875 L 15.875 53.421875 Z M 15.875 56.066406 "/>
<path style=" stroke:none;fill-rule:nonzero;fill:url(#radial3);" d="M 47.628906 56.066406 L 52.921875 56.066406 L 52.921875 58.714844 L 47.628906 58.714844 Z M 47.628906 56.066406 "/>
<path style=" stroke:none;fill-rule:nonzero;fill:url(#linear1);" d="M 13.230469 5.792969 L 50.277344 5.792969 C 51.738281 5.792969 52.921875 6.976562 52.921875 8.4375 L 52.921875 53.421875 C 52.921875 54.882812 51.738281 56.066406 50.277344 56.066406 L 13.230469 56.066406 C 11.769531 56.066406 10.585938 54.882812 10.585938 53.421875 L 10.585938 8.4375 C 10.585938 6.976562 11.769531 5.792969 13.230469 5.792969 Z M 13.230469 5.792969 "/>
<path style=" stroke:none;fill-rule:nonzero;fill:rgb(25.882354%,25.882354%,25.882354%);fill-opacity:0.235294;" d="M 52.921875 45.484375 L 41.015625 56.066406 L 50.277344 56.066406 C 51.742188 56.066406 52.921875 54.886719 52.921875 53.421875 Z M 52.921875 45.484375 "/>
<path style=" stroke:none;fill-rule:nonzero;fill:url(#linear2);" d="M 41.015625 56.066406 L 52.921875 45.484375 L 43.660156 45.484375 C 42.195312 45.484375 41.015625 46.664062 41.015625 48.128906 Z M 41.015625 56.066406 "/>
<path style=" stroke:none;fill-rule:nonzero;fill:rgb(100%,100%,100%);fill-opacity:0.784314;" d="M 43.660156 45.484375 C 42.195312 45.484375 41.015625 46.664062 41.015625 48.128906 L 41.015625 48.792969 C 41.015625 47.324219 42.195312 46.144531 43.660156 46.144531 L 52.175781 46.144531 L 52.921875 45.484375 Z M 43.660156 45.484375 "/>
<path style="fill:none;stroke-width:3;stroke-linecap:round;stroke-linejoin:round;stroke:rgb(12.941177%,12.941177%,12.941177%);stroke-opacity:1;stroke-miterlimit:4;" d="M 328.093663 233.488176 L 423.334568 148.84001 L 349.247893 148.84001 C 337.530262 148.84001 328.093663 158.276608 328.093663 169.994239 Z M 328.093663 233.488176 " transform="matrix(0.125012,0,0,0.125012,0.00000066673,26.877597)"/>
<path style=" stroke:none;fill-rule:nonzero;fill:rgb(0%,0%,0%);fill-opacity:0.235294;" d="M 10.75 15.878906 L 52.757812 15.878906 L 52.757812 18.359375 L 10.75 18.359375 Z M 10.75 15.878906 "/>
<path style="fill-rule:nonzero;fill:url(#linear3);stroke-width:11.338583;stroke-linecap:round;stroke-linejoin:round;stroke:rgb(12.941177%,12.941177%,12.941177%);stroke-opacity:1;stroke-miterlimit:4;" d="M 400.001193 175.140764 C 355.714081 175.140764 320.048194 210.806652 320.048194 255.093763 L 320.048194 495.070859 L 1600.004772 495.070859 L 1600.004772 255.093763 C 1600.004772 210.806652 1564.338884 175.140764 1520.051773 175.140764 Z M 400.001193 175.140764 " transform="matrix(0.0330761,0,0,0.0330761,0,0)"/>
<path style=" stroke:none;fill-rule:nonzero;fill:rgb(93.725491%,32.549021%,31.37255%);fill-opacity:0.903974;" d="M 18.523438 28.285156 L 41.015625 28.285156 C 41.746094 28.285156 42.335938 28.796875 42.335938 29.425781 L 42.335938 29.785156 C 42.335938 30.417969 41.746094 30.929688 41.015625 30.929688 L 18.523438 30.929688 C 17.792969 30.929688 17.199219 30.417969 17.199219 29.785156 L 17.199219 29.425781 C 17.199219 28.796875 17.792969 28.285156 18.523438 28.285156 Z M 18.523438 28.285156 "/>
<path style=" stroke:none;fill-rule:nonzero;fill:rgb(25.882354%,25.882354%,25.882354%);fill-opacity:0.903974;" d="M 18.523438 21.667969 L 44.984375 21.667969 C 45.714844 21.667969 46.304688 22.101562 46.304688 22.632812 L 46.304688 23.351562 C 46.304688 23.882812 45.714844 24.316406 44.984375 24.316406 L 18.523438 24.316406 C 17.792969 24.316406 17.199219 23.882812 17.199219 23.351562 L 17.199219 22.632812 C 17.199219 22.101562 17.792969 21.667969 18.523438 21.667969 Z M 18.523438 21.667969 "/>
<path style=" stroke:none;fill-rule:nonzero;fill:rgb(25.882354%,25.882354%,25.882354%);fill-opacity:0.903974;" d="M 18.523438 34.898438 L 44.984375 34.898438 C 45.714844 34.898438 46.304688 35.4375 46.304688 36.101562 L 46.304688 36.339844 C 46.304688 37.007812 45.714844 37.546875 44.984375 37.546875 L 18.523438 37.546875 C 17.792969 37.546875 17.199219 37.007812 17.199219 36.339844 L 17.199219 36.101562 C 17.199219 35.4375 17.792969 34.898438 18.523438 34.898438 Z M 18.523438 34.898438 "/>
<path style=" stroke:none;fill-rule:nonzero;fill:rgb(100%,100%,100%);fill-opacity:0.392157;" d="M 13.230469 5.941406 C 11.765625 5.941406 10.585938 7.121094 10.585938 8.585938 L 10.585938 8.917969 C 10.585938 7.453125 11.765625 6.269531 13.230469 6.273438 L 50.277344 6.273438 C 51.742188 6.269531 52.921875 7.453125 52.921875 8.917969 L 52.921875 8.585938 C 52.921875 7.121094 51.742188 5.941406 50.277344 5.941406 Z M 13.230469 5.941406 "/>
<path style=" stroke:none;fill-rule:nonzero;fill:rgb(0%,0%,0%);fill-opacity:0.235294;" d="M 10.585938 52.902344 L 10.585938 53.421875 C 10.585938 54.886719 11.765625 56.066406 13.230469 56.066406 L 50.277344 56.066406 C 51.742188 56.066406 52.921875 54.886719 52.921875 53.421875 L 52.921875 52.902344 C 52.921875 54.367188 51.742188 55.550781 50.277344 55.550781 L 13.230469 55.550781 C 11.765625 55.550781 10.585938 54.367188 10.585938 52.902344 Z M 10.585938 52.902344 "/>
<path style=" stroke:none;fill-rule:nonzero;fill:rgb(12.941177%,12.941177%,12.941177%);fill-opacity:1;" d="M 13.230469 5.605469 C 11.664062 5.605469 10.398438 6.871094 10.398438 8.4375 L 10.398438 53.421875 C 10.398438 54.988281 11.664062 56.253906 13.230469 56.253906 L 50.277344 56.253906 C 51.84375 56.253906 53.109375 54.988281 53.109375 53.421875 L 53.109375 8.4375 C 53.109375 6.871094 51.84375 5.605469 50.277344 5.605469 Z M 13.230469 5.980469 L 50.277344 5.980469 C 51.640625 5.980469 52.734375 7.074219 52.734375 8.4375 L 52.734375 53.421875 C 52.734375 54.789062 51.640625 55.878906 50.277344 55.878906 L 13.230469 55.878906 C 11.863281 55.878906 10.773438 54.789062 10.773438 53.421875 L 10.773438 8.4375 C 10.773438 7.074219 11.863281 5.980469 13.230469 5.980469 Z M 13.230469 5.980469 "/>
<path style=" stroke:none;fill-rule:nonzero;fill:rgb(14.901961%,65.098041%,60.392159%);fill-opacity:0.903974;" d="M 18.523438 41.515625 L 35.722656 41.515625 C 36.453125 41.515625 37.046875 41.972656 37.046875 42.539062 L 37.046875 43.136719 C 37.046875 43.703125 36.453125 44.160156 35.722656 44.160156 L 18.523438 44.160156 C 17.792969 44.160156 17.199219 43.703125 17.199219 43.136719 L 17.199219 42.539062 C 17.199219 41.972656 17.792969 41.515625 18.523438 41.515625 Z M 18.523438 41.515625 "/>
<path style="fill-rule:nonzero;fill:url(#linear4);stroke-width:3;stroke-linecap:round;stroke-linejoin:round;stroke:rgb(12.941177%,12.941177%,12.941177%);stroke-opacity:1;stroke-miterlimit:4;" d="M 246.070251 -134.257711 L 261.943736 -134.257711 C 266.318318 -134.257711 269.880478 -130.726798 269.880478 -126.320968 C 269.880478 -121.946386 266.318318 -118.384226 261.943736 -118.384226 L 246.070251 -118.384226 C 241.664422 -118.384226 238.133509 -121.946386 238.133509 -126.320968 C 238.133509 -130.726798 241.664422 -134.257711 246.070251 -134.257711 Z M 246.070251 -134.257711 " transform="matrix(0.125012,0,0,0.125012,0,26.877566)"/>
<path style="fill-rule:nonzero;fill:url(#linear5);stroke-width:3;stroke-linecap:round;stroke-linejoin:round;stroke:rgb(12.941177%,12.941177%,12.941177%);stroke-opacity:1;stroke-miterlimit:4;" d="M 198.449799 -134.257711 L 214.323283 -134.257711 C 218.697865 -134.257711 222.260025 -130.726798 222.260025 -126.320968 C 222.260025 -121.946386 218.697865 -118.384226 214.323283 -118.384226 L 198.449799 -118.384226 C 194.04397 -118.384226 190.513057 -121.946386 190.513057 -126.320968 C 190.513057 -130.726798 194.04397 -134.257711 198.449799 -134.257711 Z M 198.449799 -134.257711 " transform="matrix(0.125012,0,0,0.125012,0,26.877566)"/>
<path style="fill-rule:nonzero;fill:url(#linear6);stroke-width:3;stroke-linecap:round;stroke-linejoin:round;stroke:rgb(12.941177%,12.941177%,12.941177%);stroke-opacity:1;stroke-miterlimit:4;" d="M 150.7981 -134.257711 L 166.702831 -134.257711 C 171.077413 -134.257711 174.639573 -130.726798 174.639573 -126.320968 C 174.639573 -121.946386 171.077413 -118.384226 166.702831 -118.384226 L 150.7981 -118.384226 C 146.423517 -118.384226 142.861357 -121.946386 142.861357 -126.320968 C 142.861357 -130.726798 146.423517 -134.257711 150.7981 -134.257711 Z M 150.7981 -134.257711 " transform="matrix(0.125012,0,0,0.125012,0,26.877566)"/>
<path style="fill-rule:nonzero;fill:url(#linear7);stroke-width:3;stroke-linecap:round;stroke-linejoin:round;stroke:rgb(12.941177%,12.941177%,12.941177%);stroke-opacity:1;stroke-miterlimit:4;" d="M 341.311156 -134.257711 L 357.184641 -134.257711 C 361.559223 -134.257711 365.121383 -130.726798 365.121383 -126.320968 C 365.121383 -121.946386 361.559223 -118.384226 357.184641 -118.384226 L 341.311156 -118.384226 C 336.936574 -118.384226 333.374414 -121.946386 333.374414 -126.320968 C 333.374414 -130.726798 336.936574 -134.257711 341.311156 -134.257711 Z M 341.311156 -134.257711 " transform="matrix(0.125012,0,0,0.125012,0,26.877566)"/>
<path style="fill-rule:nonzero;fill:url(#linear8);stroke-width:3;stroke-linecap:round;stroke-linejoin:round;stroke:rgb(12.941177%,12.941177%,12.941177%);stroke-opacity:1;stroke-miterlimit:4;" d="M 293.690704 -134.257711 L 309.564188 -134.257711 C 313.93877 -134.257711 317.50093 -130.726798 317.50093 -126.320968 C 317.50093 -121.946386 313.93877 -118.384226 309.564188 -118.384226 L 293.690704 -118.384226 C 289.316122 -118.384226 285.753962 -121.946386 285.753962 -126.320968 C 285.753962 -130.726798 289.316122 -134.257711 293.690704 -134.257711 Z M 293.690704 -134.257711 " transform="matrix(0.125012,0,0,0.125012,0,26.877566)"/>
</g>
</svg>
